svg/icon/ion.svg

<svg height="32" viewBox="0 0 32 32" width="32" xmlns="http://www.w3.org/2000/svg" xmlns:xlink="http://www.w3.org/1999/xlink"><defs><linearGradient id="a" x1="50%" x2="50%" y1="0%" y2="100%"><stop offset="0" stop-color="#fff" stop-opacity=".5"/><stop offset="1" stop-opacity=".5"/></linearGradient><circle id="b" cx="16" cy="15" r="15"/><filter id="c" height="111.7%" width="111.7%" x="-5.8%" y="-4.2%"><feOffset dy=".5" in="SourceAlpha" result="shadowOffsetOuter1"/><feGaussianBlur in="shadowOffsetOuter1" result="shadowBlurOuter1" stdDeviation=".5"/><feComposite in="shadowBlurOuter1" in2="SourceAlpha" operator="out" result="shadowBlurOuter1"/><feColorMatrix in="shadowBlurOuter1" values="0 0 0 0 0   0 0 0 0 0   0 0 0 0 0  0 0 0 0.199473505 0"/></filter><path id="d" d="m7.02599456 18.0087638c-.10514047.012473-.2121274.018888-.32060552.018888-1.49414511 0-2.70538904-1.2170169-2.70538904-2.7182834 0-1.4934805 1.19871294-2.7056522 2.68216507-2.7181853.95974417-4.4098795 4.86923753-7.71119195 9.54613613-7.71119195.873021 0 1.7193022.11503237 2.5246489.33083485.4850789-.73000602 1.3124617-1.210826 2.2516133-1.210826 1.4941451 0 2.7053891 1.21701692 2.7053891 2.71828338 0 .46848248-.1179513.90928465-.3256432 1.29406128 1.6229844 1.75290519 2.6156907 4.10292994 2.6156907 6.68591884 0 2.7325243-1.1109737 5.2043301-2.9038331 6.9842841.3254429.4487424.5174633 1.0014244.5174633 1.599169 0 1.5012665-1.2112439 2.7182834-2.705389 2.7182834-1.1450273 0-2.123912-.7147311-2.5188454-1.7243933-.6951917.1576932-1.4184688.2409291-2.1610946.2409291-4.240609 0-7.85031103-2.7141084-9.20230664-6.507772zm.48916105-.1049725c1.30075829 3.5684338 4.71097009 6.1150119 8.71314559 6.1150119.6948227 0 1.3718032-.076756 2.0230006-.2222896-.0318011-.1666899-.0484497-.33879-.0484497-.514797 0-1.5012664 1.211244-2.7182834 2.7053891-2.7182834.7206139 0 1.3754235.2830847 1.8602839.7446128 1.6899234-1.6881781 2.7361034-4.0262238 2.7361034-6.6097825 0-2.4099813-.9103262-4.606331-2.4043281-6.26084199-.4961153.60984541-1.2506789.99914524-2.095737.99914524-1.4941451 0-2.705389-1.21701692-2.705389-2.71828337 0-.3746131.0754192-.73152713.2118337-1.05624943-.7302591-.1856654-1.4950178-.28431025-2.2827069-.28431025-4.41675 0-8.11254451 3.10148993-9.04777955 7.2551448 1.26757579.2256352 2.23025643 1.3381087 2.23025643 2.6764999 0 1.2178337-.79706186 2.2486164-1.89562247 2.5944229zm8.71314559-.4839262c-1.495969 0-2.7086915-1.2185026-2.7086915-2.7216016 0-1.5030991 1.2127225-2.7216016 2.7086915-2.7216016s2.7086915 1.2185025 2.7086915 2.7216016c0 1.503099-1.2127225 2.7216016-2.7086915 2.7216016z"/><filter id="e" height="115.9%" width="115.9%" x="-8%" y="-5.7%"><feOffset dy=".5" in="SourceAlpha" result="shadowOffsetOuter1"/><feGaussianBlur in="shadowOffsetOuter1" result="shadowBlurOuter1" stdDeviation=".5"/><feColorMatrix in="shadowBlurOuter1" values="0 0 0 0 0   0 0 0 0 0   0 0 0 0 0  0 0 0 0.204257246 0"/></filter></defs><g fill="none" fill-rule="evenodd"><use fill="#000" filter="url(#c)" xlink:href="#b"/><use fill="#57beea" xlink:href="#b"/><use fill="url(#a)" xlink:href="#b"/><circle cx="16" cy="15" r="14.5" stroke="#000" stroke-opacity=".097"/><g fill-rule="nonzero"><use fill="#000" filter="url(#e)" xlink:href="#d"/><use fill="#fff" fill-rule="evenodd" xlink:href="#d"/></g></g></svg>

<svg xmlns="http://www.w3.org/2000/svg" xmlns:xlink="http://www.w3.org/1999/xlink" width="32" height="32" viewBox="0 0 32 32">
  <defs>
    <linearGradient id="ion-c" x1="50%" x2="50%" y1="0%" y2="100%">
      <stop offset="0%" stop-color="#FFF" stop-opacity=".5"/>
      <stop offset="100%" stop-opacity=".5"/>
    </linearGradient>
    <circle id="ion-b" cx="16" cy="15" r="15"/>
    <filter id="ion-a" width="111.7%" height="111.7%" x="-5.8%" y="-4.2%" filterUnits="objectBoundingBox">
      <feOffset dy=".5" in="SourceAlpha" result="shadowOffsetOuter1"/>
      <feGaussianBlur in="shadowOffsetOuter1" result="shadowBlurOuter1" stdDeviation=".5"/>
      <feComposite in="shadowBlurOuter1" in2="SourceAlpha" operator="out" result="shadowBlurOuter1"/>
      <feColorMatrix in="shadowBlurOuter1" values="0 0 0 0 0   0 0 0 0 0   0 0 0 0 0  0 0 0 0.199473505 0"/>
    </filter>
    <path id="ion-e" d="M7.02599456,18.0087638 C6.92085409,18.0212368 6.81386716,18.0276518 6.70538904,18.0276518 C5.21124393,18.0276518 4,16.8106349 4,15.3093684 C4,13.8158879 5.19871294,12.6037162 6.68216507,12.5911831 C7.64190924,8.1813036 11.5514026,4.87999115 16.2283012,4.87999115 C17.1013222,4.87999115 17.9476034,4.99502352 18.7529501,5.210826 C19.238029,4.48081998 20.0654118,4 21.0045634,4 C22.4987085,4 23.7099525,5.21701692 23.7099525,6.71828338 C23.7099525,7.18676586 23.5920012,7.62756803 23.3843093,8.01234466 C25.0072937,9.76524985 26,12.1152746 26,14.6982635 C26,17.4307878 24.8890263,19.9025936 23.0961669,21.6825476 C23.4216098,22.13129 23.6136302,22.683972 23.6136302,23.2817166 C23.6136302,24.7829831 22.4023863,26 20.9082412,26 C19.7632139,26 18.7843292,25.2852689 18.3893958,24.2756067 C17.6942041,24.4332999 16.970927,24.5165358 16.2283012,24.5165358 C11.9876922,24.5165358 8.37799017,21.8024274 7.02599456,18.0087638 Z M7.51515561,17.9037913 C8.8159139,21.4722251 12.2261257,24.0188032 16.2283012,24.0188032 C16.9231239,24.0188032 17.6001044,23.9420472 18.2513018,23.7965136 C18.2195007,23.6298237 18.2028521,23.4577236 18.2028521,23.2817166 C18.2028521,21.7804502 19.4140961,20.5634332 20.9082412,20.5634332 C21.6288551,20.5634332 22.2836647,20.8465179 22.7685251,21.308046 C24.4584485,19.6198679 25.5046285,17.2818222 25.5046285,14.6982635 C25.5046285,12.2882822 24.5943023,10.0919325 23.1003004,8.43742151 C22.6041851,9.04726692 21.8496215,9.43656675 21.0045634,9.43656675 C19.5104183,9.43656675 18.2991744,8.21954983 18.2991744,6.71828338 C18.2991744,6.34367028 18.3745936,5.98675625 18.5110081,5.66203395 C17.780749,5.47636855 17.0159903,5.3777237 16.2283012,5.3777237 C11.8115512,5.3777237 8.11575669,8.47921363 7.18052165,12.6328685 C8.44809744,12.8585037 9.41077808,13.9709772 9.41077808,15.3093684 C9.41077808,16.5272021 8.61371622,17.5579848 7.51515561,17.9037913 Z M16.2283012,17.4198651 C14.7323322,17.4198651 13.5196097,16.2013625 13.5196097,14.6982635 C13.5196097,13.1951644 14.7323322,11.9766619 16.2283012,11.9766619 C17.7242702,11.9766619 18.9369927,13.1951644 18.9369927,14.6982635 C18.9369927,16.2013625 17.7242702,17.4198651 16.2283012,17.4198651 Z"/>
    <filter id="ion-d" width="115.9%" height="115.9%" x="-8%" y="-5.7%" filterUnits="objectBoundingBox">
      <feOffset dy=".5" in="SourceAlpha" result="shadowOffsetOuter1"/>
      <feGaussianBlur in="shadowOffsetOuter1" result="shadowBlurOuter1" stdDeviation=".5"/>
      <feColorMatrix in="shadowBlurOuter1" values="0 0 0 0 0   0 0 0 0 0   0 0 0 0 0  0 0 0 0.204257246 0"/>
    </filter>
  </defs>
  <g fill="none" fill-rule="evenodd">
    <use fill="#000" filter="url(#ion-a)" xlink:href="#ion-b"/>
    <use fill="#57BEEA" xlink:href="#ion-b"/>
    <use fill="url(#ion-c)" style="mix-blend-mode:soft-light" xlink:href="#ion-b"/>
    <circle cx="16" cy="15" r="14.5" stroke="#000" stroke-opacity=".097"/>
    <g fill-rule="nonzero">
      <use fill="#000" filter="url(#ion-d)" xlink:href="#ion-e"/>
      <use fill="#FFF" fill-rule="evenodd" xlink:href="#ion-e"/>
    </g>
  </g>
</svg>
